images/linkedin-logo.svg

<svg xmlns="http://www.w3.org/2000/svg" viewBox="-305 397 504 504" enable-background="new -305 397 504 504"><style type="text/css">.st0{fill:#FFFFFF;}</style><path d="M83.6 865h-274.3c-43.8 0-79.4-35.5-79.4-79.4v-273.2c0-43.8 35.5-79.4 79.4-79.4h274.3c43.8 0 79.4 35.5 79.4 79.4v273.3c0 43.8-35.5 79.3-79.4 79.3z"/><path class="st0" d="M87.7 665.3v106.7h-58.8v-99.9c0-23.9-8.6-40.3-29.8-40.3-16.2 0-25.9 11-30.1 21.7-1.6 3.9-2.1 9.1-2.1 14.4v104.1h-58.7v-182.7h58.7v25.4c8.6-12.2 21.9-29.7 53-29.7 38.6 0 67.8 25.4 67.8 80.3zM-122.7 530c0 17.5-12.2 31.5-31.7 31.5h-.4c-18.8 0-31-14-31-31.5-.1-17.8 12.4-31.5 31.6-31.5s31.1 13.5 31.5 31.5zM-185.9 589.3h58.7v182.7h-58.7z"/></svg>

<?xml version="1.0" encoding="utf-8"?>
<!-- Generator: Adobe Illustrator 19.1.0, SVG Export Plug-In . SVG Version: 6.00 Build 0)  -->
<svg version="1.1" id="Layer_1" xmlns="http://www.w3.org/2000/svg" xmlns:xlink="http://www.w3.org/1999/xlink" x="0px" y="0px"
	 viewBox="-305 397 504 504" style="enable-background:new -305 397 504 504;" xml:space="preserve">
<style type="text/css">
	.st0{fill:#FFFFFF;}
</style>
<path d="M83.6,865h-274.3c-43.8,0-79.4-35.5-79.4-79.4V512.4c0-43.8,35.5-79.4,79.4-79.4H83.6c43.8,0,79.4,35.5,79.4,79.4v273.3
	C163,829.5,127.5,865,83.6,865z"/>
<g>
	<path class="st0" d="M87.7,665.3V772H28.9v-99.9c0-23.9-8.6-40.3-29.8-40.3c-16.2,0-25.9,11-30.1,21.7c-1.6,3.9-2.1,9.1-2.1,14.4
		V772h-58.7V589.3h58.7v25.4c8.6-12.2,21.9-29.7,53-29.7C58.5,585,87.7,610.4,87.7,665.3z"/>
	<path class="st0" d="M-122.7,530c0,17.5-12.2,31.5-31.7,31.5h-0.4c-18.8,0-31-14-31-31.5c-0.1-17.8,12.4-31.5,31.6-31.5
		S-123.1,512-122.7,530z"/>
	<rect x="-185.9" y="589.3" class="st0" width="58.7" height="182.7"/>
</g>
</svg>
